X: 1
T: On the Mend
P: piffero primo a 0720
O: Greg Bacon
%R: jig
F: http://ancients.sudburymuster.org/mus/sng/pdf/onthemendC0.pdf
Z: 2020 John Chambers <jc:trillian.mit.edu>
M: 6/8
L: 1/8
K: G
D |\
G2G ABc | Bcd def | g2g dcB | cBA DEF |\
G2G ABc | Bcd def | g2g dcB | cBA G2 :|
|: G |\
B2B fBA | c2c g2d | d2d aba | gfe ABc |\
B2B fBA | c2c g2d | def gdB | ABA G2 :|
